images/remote-branches-2.svg

<?xml version="1.0" encoding="UTF-8"?>
<svg id="svg13660" version="1.1" viewBox="0 0 663 408" xmlns="http://www.w3.org/2000/svg" xmlns:cc="http://creativecommons.org/ns#" xmlns:dc="http://purl.org/dc/elements/1.1/" xmlns:rdf="http://www.w3.org/1999/02/22-rdf-syntax-ns#">
 <metadata id="metadata13666">
  <rdf:RDF>
   <cc:Work rdf:about="">
    <dc:format>image/svg+xml</dc:format>
    <dc:type rdf:resource="http://purl.org/dc/dcmitype/StillImage"/>
    <dc:title>images/remote-branches-2</dc:title>
   </cc:Work>
  </rdf:RDF>
 </metadata>
 <!-- Generator: Sketch 56.3 (81716) - https://sketch.com -->
 <title id="title13529">images/remote-branches-2</title>
 <desc id="desc13531">Created with Sketch.</desc>
 <g id="03---Remote-Branches-2" fill="none" fill-rule="evenodd">
  <g id="brown" transform="translate(46 109)">
   <rect id="Rectangle-1" width="89" height="33" rx="16.5" fill="#EFEFE7" fill-rule="evenodd"/>
   <text id="C6" fill="#979797" font-family="Source Code Pro" font-size="12px" font-weight="700" text-anchor="middle"><tspan id="tspan13534" x="44.5" y="21" fill="#808080">0b743</tspan></text>
  </g>
  <path id="Line-7" d="m144 125h39v1h-39v4l-9-4.5 9-4.5v4z" fill="#8F8981" fill-rule="nonzero"/>
  <g id="g13545" transform="translate(163 109)">
   <rect id="rect13539" width="89" height="33" rx="16.5" fill="#EFEFE7" fill-rule="evenodd"/>
   <text id="text13543" fill="#979797" font-family="Source Code Pro" font-size="12px" font-weight="700" text-anchor="middle"><tspan id="tspan13541" x="44.5" y="21" fill="#808080">a6b4c</tspan></text>
  </g>
  <path id="Line-8" d="m261 125h39v1h-39v4l-9-4.5 9-4.5v4z" fill="#8F8981" fill-rule="nonzero"/>
  <g id="g13554" transform="translate(280 109)">
   <rect id="rect13548" width="89" height="33" rx="16.5" fill="#EFEFE7" fill-rule="evenodd"/>
   <text id="text13552" fill="#979797" font-family="Source Code Pro" font-size="12px" font-weight="700" text-anchor="middle"><tspan id="tspan13550" x="44.5" y="21" fill="#808080">f4265</tspan></text>
  </g>
  <path id="path13556" d="m376 125h39v1h-39v4l-9-4.5 9-4.5v4z" fill="#8F8981" fill-rule="nonzero"/>
  <g id="g13564" transform="translate(395 109)">
   <rect id="rect13558" width="89" height="33" rx="16.5" fill="#EFEFE7" fill-rule="evenodd"/>
   <text id="text13562" fill="#979797" font-family="Source Code Pro" font-size="12px" font-weight="700" text-anchor="middle"><tspan id="tspan13560" x="44.5" y="21" fill="#808080">31b8e</tspan></text>
  </g>
  <path id="path13566" d="m492 125h39v1h-39v4l-9-4.5 9-4.5v4z" fill="#8F8981" fill-rule="nonzero"/>
  <g id="g13574" transform="translate(511 109)">
   <rect id="rect13568" width="89" height="33" rx="16.5" fill="#EFEFE7" fill-rule="evenodd"/>
   <text id="text13572" fill="#979797" font-family="Source Code Pro" font-size="12px" font-weight="700" text-anchor="middle"><tspan id="tspan13570" x="44.5" y="21" fill="#808080">190a3</tspan></text>
  </g>
  <g id="Line-2-+-ref" transform="translate(513 56)">
   <path id="Line-2" d="m42 44v-24h1v24h4l-4.5 9-4.5-9h4z" fill="#8F8981" fill-rule="nonzero"/>
   <g id="ref">
    <rect id="Rectangle-2" width="106" height="33" fill="#F44D27" fill-rule="evenodd"/>
    <text id="master" fill="#979797" font-family="Source Code Pro" font-size="12px" font-weight="700" text-anchor="middle"><tspan id="tspan13578" x="53" y="20" fill="#f0f0f0">master</tspan></text>
   </g>
  </g>
  <path id="Line-6" d="m324 286v-27h1v27h4l-4.5 9-4.5-9h4z" fill="#8F8981" fill-rule="nonzero"/>
  <g id="g13590" transform="translate(46 295)">
   <rect id="rect13584" width="89" height="33" rx="16.5" fill="#EFEFE7" fill-rule="evenodd"/>
   <text id="text13588" fill="#979797" font-family="Source Code Pro" font-size="12px" font-weight="700" text-anchor="middle"><tspan id="tspan13586" x="44.5" y="21" fill="#808080">0b743</tspan></text>
  </g>
  <path id="Line-5" d="m144 311h39v1h-39v4l-9-4.5 9-4.5v4z" fill="#8F8981" fill-rule="nonzero"/>
  <g id="g13599" transform="translate(163 295)">
   <rect id="rect13593" width="89" height="33" rx="16.5" fill="#EFEFE7" fill-rule="evenodd"/>
   <text id="text13597" fill="#979797" font-family="Source Code Pro" font-size="12px" font-weight="700" text-anchor="middle"><tspan id="tspan13595" x="44.5" y="21" fill="#808080">a6b4c</tspan></text>
  </g>
  <path id="Line-4" d="m261 311h39v1h-39v4l-9-4.5 9-4.5v4z" fill="#8F8981" fill-rule="nonzero"/>
  <g id="g13608" transform="translate(280 295)">
   <rect id="rect13602" width="89" height="33" rx="16.5" fill="#EFEFE7" fill-rule="evenodd"/>
   <text id="text13606" fill="#979797" font-family="Source Code Pro" font-size="12px" font-weight="700" text-anchor="middle"><tspan id="tspan13604" x="44.5" y="21" fill="#808080">f4265</tspan></text>
  </g>
  <path id="path13610" d="m379 311h39v1h-39v4l-9-4.5 9-4.5v4z" fill="#8F8981" fill-rule="nonzero"/>
  <g id="g13618" transform="translate(398 295)">
   <rect id="rect13612" width="89" height="33" rx="16.5" fill="#EFEFE7" fill-rule="evenodd"/>
   <text id="text13616" fill="#979797" font-family="Source Code Pro" font-size="12px" font-weight="700" text-anchor="middle"><tspan id="tspan13614" x="44.5" y="21" fill="#808080">a38de</tspan></text>
  </g>
  <path id="path13620" d="m496 311h39v1h-39v4l-9-4.5 9-4.5v4z" fill="#8F8981" fill-rule="nonzero"/>
  <g id="g13628" transform="translate(515 295)">
   <rect id="rect13622" width="89" height="33" rx="16.5" fill="#EFEFE7" fill-rule="evenodd"/>
   <text id="text13626" fill="#979797" font-family="Source Code Pro" font-size="12px" font-weight="700" text-anchor="middle"><tspan id="tspan13624" x="44.5" y="21" fill="#808080">893cf</tspan></text>
  </g>
  <g id="Line-3-+-ref-2" transform="translate(516 328)">
   <path id="Line-3" d="m44 9v25h-1v-25h-4l4.5-9 4.5 9h-4z" fill="#8F8981" fill-rule="nonzero"/>
   <g id="g13637" transform="translate(0 20)">
    <rect id="rect13631" width="106" height="33" fill="#F44D27" fill-rule="evenodd"/>
    <text id="text13635" fill="#979797" font-family="Source Code Pro" font-size="12px" font-weight="700" text-anchor="middle"><tspan id="tspan13633" x="53" y="20" fill="#f0f0f0">master</tspan></text>
   </g>
  </g>
  <g id="ref-3" transform="translate(270 242)">
   <rect id="rect13640" width="111" height="33" fill="#F44D27"/>
   <text id="text13644" fill="#979797" font-family="Source Code Pro" font-size="12px" font-weight="700" text-anchor="middle"><tspan id="tspan13642" x="55.5" y="20" fill="#f0f0f0">origin/master</tspan></text>
  </g>
  <g id="Group" transform="translate(19 17)">
   <rect id="Rectangle-10" x="-.26502" width="626.45" height="144.97" stroke="#8F8981" stroke-linecap="square"/>
   <rect id="Rectangle-11" x="-.26502" y="191" width="626.45" height="185" stroke="#8F8981" stroke-linecap="square"/>
   <text id="My-Computer" transform="translate(-.30336)" font-size="12px" font-weight="700" style="fill:#404040;font-family:'Source Code Pro';font-size:12px;font-weight:700;text-anchor:middle"><tspan id="tspan13649" x="313.22549" y="208" style="fill:#404040">My Computer</tspan></text>
   <text id="git.ourcompany.com" transform="translate(-.42336)" font-size="12px" font-weight="700" style="fill:#404040;font-family:'Source Code Pro';font-size:12px;font-weight:700;text-anchor:middle"><tspan id="tspan13652" x="313.22549" y="16" style="fill:#404040">git.ourcompany.com</tspan></text>
  </g>
  <text id="Someone-else-pushes" fill="#413932" font-family="Source Code Pro" font-size="12px" font-weight="700" style="fill:#414141"><tspan id="tspan13656" x="490" y="157" style="fill:#414141">Someone else pushes</tspan></text>
 </g>
</svg>

<?xml version="1.0"?>
<svg xmlns="http://www.w3.org/2000/svg" xmlns:xlink="http://www.w3.org/1999/xlink" width="663px" height="408px" viewBox="0 0 663 408" version="1.1">
    <!-- Generator: Sketch 56.3 (81716) - https://sketch.com -->
    <title>images/remote-branches-2</title>
    <desc>Created with Sketch.</desc>
    <g id="03---Remote-Branches-2" stroke="none" stroke-width="1" fill="none" fill-rule="evenodd">
        <g id="brown" transform="translate(46.000000, 109.000000)">
            <rect id="Rectangle-1" fill="#EFEFE7" fill-rule="evenodd" x="0" y="0" width="89" height="33" rx="16.5"/>
            <text stroke="none" font-family="Source Code Pro" font-size="12px" font-weight="900" fill="#979797" fill-opacity="1" text-anchor="middle" id="C6">
                <tspan fill="#808080" x="44.5" y="21" fill-opacity="1">0b743</tspan>
            </text>
        </g>
        <path id="Line-7" d="M144,125 L183,125 L183,126 L144,126 L144,130 L135,125.5 L144,121 L144,125 Z" fill="#8F8981" fill-rule="nonzero"/>
        <g id="brown" transform="translate(163.000000, 109.000000)">
            <rect id="Rectangle-1" fill="#EFEFE7" fill-rule="evenodd" x="0" y="0" width="89" height="33" rx="16.5"/>
            <text stroke="none" font-family="Source Code Pro" font-size="12px" font-weight="900" fill="#979797" fill-opacity="1" text-anchor="middle" id="C6">
                <tspan fill="#808080" x="44.5" y="21" fill-opacity="1">a6b4c</tspan>
            </text>
        </g>
        <path id="Line-8" d="M261,125 L300,125 L300,126 L261,126 L261,130 L252,125.5 L261,121 L261,125 Z" fill="#8F8981" fill-rule="nonzero"/>
        <g id="brown" transform="translate(280.000000, 109.000000)">
            <rect id="Rectangle-1" fill="#EFEFE7" fill-rule="evenodd" x="0" y="0" width="89" height="33" rx="16.5"/>
            <text stroke="none" font-family="Source Code Pro" font-size="12px" font-weight="900" fill="#979797" fill-opacity="1" text-anchor="middle" id="C6">
                <tspan fill="#808080" x="44.5" y="21" fill-opacity="1">f4265</tspan>
            </text>
        </g>
        <path id="Line-8" d="M376,125 L415,125 L415,126 L376,126 L376,130 L367,125.5 L376,121 L376,125 Z" fill="#8F8981" fill-rule="nonzero"/>
        <g id="brown" transform="translate(395.000000, 109.000000)">
            <rect id="Rectangle-1" fill="#EFEFE7" fill-rule="evenodd" x="0" y="0" width="89" height="33" rx="16.5"/>
            <text stroke="none" font-family="Source Code Pro" font-size="12px" font-weight="900" fill="#979797" fill-opacity="1" text-anchor="middle" id="C6">
                <tspan fill="#808080" x="44.5" y="21" fill-opacity="1">31b8e</tspan>
            </text>
        </g>
        <path id="Line-8" d="M492,125 L531,125 L531,126 L492,126 L492,130 L483,125.5 L492,121 L492,125 Z" fill="#8F8981" fill-rule="nonzero"/>
        <g id="brown" transform="translate(511.000000, 109.000000)">
            <rect id="Rectangle-1" fill="#EFEFE7" fill-rule="evenodd" x="0" y="0" width="89" height="33" rx="16.5"/>
            <text stroke="none" font-family="Source Code Pro" font-size="12px" font-weight="900" fill="#979797" fill-opacity="1" text-anchor="middle" id="C6">
                <tspan fill="#808080" x="44.5" y="21" fill-opacity="1">190a3</tspan>
            </text>
        </g>
        <g id="Line-2-+-ref" transform="translate(513.000000, 56.000000)">
            <path id="Line-2" d="M42,44 L42,20 L43,20 L43,44 L47,44 L42.5,53 L38,44 L42,44 Z" fill="#8F8981" fill-rule="nonzero"/>
            <g id="ref">
                <rect id="Rectangle-2" fill="#F44D27" fill-rule="evenodd" x="0" y="0" width="106" height="33"/>
                <text stroke="none" font-family="Source Code Pro" font-size="12px" font-weight="900" fill="#979797" fill-opacity="1" text-anchor="middle" id="master">
                    <tspan fill="#f0f0f0" x="53" y="20" fill-opacity="1">master</tspan>
                </text>
            </g>
        </g>
        <path id="Line-6" d="M324,286 L324,259 L325,259 L325,286 L329,286 L324.5,295 L320,286 L324,286 Z" fill="#8F8981" fill-rule="nonzero"/>
        <g id="brown" transform="translate(46.000000, 295.000000)">
            <rect id="Rectangle-1" fill="#EFEFE7" fill-rule="evenodd" x="0" y="0" width="89" height="33" rx="16.5"/>
            <text stroke="none" font-family="Source Code Pro" font-size="12px" font-weight="900" fill="#979797" fill-opacity="1" text-anchor="middle" id="C6">
                <tspan fill="#808080" x="44.5" y="21" fill-opacity="1">0b743</tspan>
            </text>
        </g>
        <path id="Line-5" d="M144,311 L183,311 L183,312 L144,312 L144,316 L135,311.5 L144,307 L144,311 Z" fill="#8F8981" fill-rule="nonzero"/>
        <g id="brown" transform="translate(163.000000, 295.000000)">
            <rect id="Rectangle-1" fill="#EFEFE7" fill-rule="evenodd" x="0" y="0" width="89" height="33" rx="16.5"/>
            <text stroke="none" font-family="Source Code Pro" font-size="12px" font-weight="900" fill="#979797" fill-opacity="1" text-anchor="middle" id="C6">
                <tspan fill="#808080" x="44.5" y="21" fill-opacity="1">a6b4c</tspan>
            </text>
        </g>
        <path id="Line-4" d="M261,311 L300,311 L300,312 L261,312 L261,316 L252,311.5 L261,307 L261,311 Z" fill="#8F8981" fill-rule="nonzero"/>
        <g id="brown" transform="translate(280.000000, 295.000000)">
            <rect id="Rectangle-1" fill="#EFEFE7" fill-rule="evenodd" x="0" y="0" width="89" height="33" rx="16.5"/>
            <text stroke="none" font-family="Source Code Pro" font-size="12px" font-weight="900" fill="#979797" fill-opacity="1" text-anchor="middle" id="C6">
                <tspan fill="#808080" x="44.5" y="21" fill-opacity="1">f4265</tspan>
            </text>
        </g>
        <path id="Line-4" d="M379,311 L418,311 L418,312 L379,312 L379,316 L370,311.5 L379,307 L379,311 Z" fill="#8F8981" fill-rule="nonzero"/>
        <g id="brown" transform="translate(398.000000, 295.000000)">
            <rect id="Rectangle-1" fill="#EFEFE7" fill-rule="evenodd" x="0" y="0" width="89" height="33" rx="16.5"/>
            <text stroke="none" font-family="Source Code Pro" font-size="12px" font-weight="900" fill="#979797" fill-opacity="1" text-anchor="middle" id="C6">
                <tspan fill="#808080" x="44.5" y="21" fill-opacity="1">a38de</tspan>
            </text>
        </g>
        <path id="Line-4" d="M496,311 L535,311 L535,312 L496,312 L496,316 L487,311.5 L496,307 L496,311 Z" fill="#8F8981" fill-rule="nonzero"/>
        <g id="brown" transform="translate(515.000000, 295.000000)">
            <rect id="Rectangle-1" fill="#EFEFE7" fill-rule="evenodd" x="0" y="0" width="89" height="33" rx="16.5"/>
            <text stroke="none" font-family="Source Code Pro" font-size="12px" font-weight="900" fill="#979797" fill-opacity="1" text-anchor="middle" id="C6">
                <tspan fill="#808080" x="44.5" y="21" fill-opacity="1">893cf</tspan>
            </text>
        </g>
        <g id="Line-3-+-ref-2" transform="translate(516.000000, 328.000000)">
            <path id="Line-3" d="M44,9 L44,34 L43,34 L43,9 L39,9 L43.5,0 L48,9 L44,9 Z" fill="#8F8981" fill-rule="nonzero"/>
            <g id="ref" transform="translate(0.000000, 20.000000)">
                <rect id="Rectangle-2" fill="#F44D27" fill-rule="evenodd" x="0" y="0" width="106" height="33"/>
                <text stroke="none" font-family="Source Code Pro" font-size="12px" font-weight="900" fill="#979797" fill-opacity="1" text-anchor="middle" id="master">
                    <tspan fill="#f0f0f0" x="53" y="20" fill-opacity="1">master</tspan>
                </text>
            </g>
        </g>
        <g id="ref-3" transform="translate(270.000000, 242.000000)">
            <rect id="Rectangle-2" fill="#F44D27" x="0" y="0" width="111" height="33"/>
            <text stroke="none" font-family="Source Code Pro" font-size="12px" font-weight="900" fill="#979797" fill-opacity="1" text-anchor="middle" id="master">
                <tspan fill="#f0f0f0" x="55.5" y="20" fill-opacity="1">origin/master</tspan>
            </text>
        </g>
        <g id="Group" transform="translate(19.000000, 17.000000)">
            <rect id="Rectangle-10" stroke="#8F8981" stroke-linecap="square" x="-0.265017668" y="0" width="626.450972" height="144.96875"/>
            <rect id="Rectangle-11" stroke="#8F8981" stroke-linecap="square" x="-0.265017668" y="191" width="626.450972" height="185"/>
            <text stroke="none" font-family="Source Code Pro" font-size="12px" font-weight="900" fill="#979797" fill-opacity="1" text-anchor="middle" id="My-Computer">
                <tspan fill="#f0f0f0" x="313.225486" y="208" fill-opacity="1">My Computer</tspan>
            </text>
            <text stroke="none" font-family="Source Code Pro" font-size="12px" font-weight="900" fill="#979797" fill-opacity="1" text-anchor="middle" id="git.ourcompany.com">
                <tspan fill="#f0f0f0" x="313.225486" y="16" fill-opacity="1">git.ourcompany.com</tspan>
            </text>
        </g>
        <text stroke="none" font-family="Source Code Pro" font-size="12px" font-weight="900" fill="#413932" fill-opacity="1" id="Someone-else-pushes">
            <tspan x="490" y="157">Someone else pushes</tspan>
        </text>
    </g>
</svg>
